Assets/Shaders/template32.CUBE
#Created by www.Photopea.com
TITLE "template.psd"
#LUT size
LUT_3D_SIZE 5
#data domain
#LUT data points
DOMAIN_MIN 0.000000 0.000000 0.000000
DOMAIN_MAX 0.903226 0.903226 0.903226
0.000000 0.000000 0.000000
0.658824 0.000000 0.000000
0.337255 0.000000 0.000000
0.066667 0.000000 0.000000
1.000000 0.000000 0.000000
0.000000 0.658824 0.000000
0.658824 0.658824 0.000000
0.337255 0.658824 0.000000
0.066667 0.658824 0.000000
1.000000 0.658824 0.000000
0.000000 0.337255 0.000000
0.658824 0.337255 0.000000
0.337255 0.337255 0.000000
0.066667 0.337255 0.000000
1.000000 0.337255 0.000000
0.000000 0.066667 0.000000
0.658824 0.066667 0.000000
0.337255 0.066667 0.000000
0.066667 0.066667 0.000000
1.000000 0.066667 0.000000
0.000000 1.000000 0.000000
0.658824 1.000000 0.000000
0.337255 1.000000 0.000000
0.066667 1.000000 0.000000
1.000000 1.000000 0.000000
0.000000 0.000000 0.658824
0.658824 0.000000 0.658824
0.337255 0.000000 0.658824
0.066667 0.000000 0.658824
1.000000 0.000000 0.658824
0.000000 0.658824 0.658824
0.658824 0.658824 0.658824
0.337255 0.658824 0.658824
0.066667 0.658824 0.658824
1.000000 0.658824 0.658824
0.000000 0.337255 0.658824
0.658824 0.337255 0.658824
0.337255 0.337255 0.658824
0.066667 0.337255 0.658824
1.000000 0.337255 0.658824
0.000000 0.066667 0.658824
0.658824 0.066667 0.658824
0.337255 0.066667 0.658824
0.066667 0.066667 0.658824
1.000000 0.066667 0.658824
0.000000 1.000000 0.658824
0.658824 1.000000 0.658824
0.337255 1.000000 0.658824
0.066667 1.000000 0.658824
1.000000 1.000000 0.658824
0.000000 0.000000 0.337255
0.658824 0.000000 0.337255
0.337255 0.000000 0.337255
0.066667 0.000000 0.337255
1.000000 0.000000 0.337255
0.000000 0.658824 0.337255
0.658824 0.658824 0.337255
0.337255 0.658824 0.337255
0.066667 0.658824 0.337255
1.000000 0.658824 0.337255
0.000000 0.337255 0.337255
0.658824 0.337255 0.337255
0.337255 0.337255 0.337255
0.066667 0.337255 0.337255
1.000000 0.337255 0.337255
0.000000 0.066667 0.337255
0.658824 0.066667 0.337255
0.337255 0.066667 0.337255
0.066667 0.066667 0.337255
1.000000 0.066667 0.337255
0.000000 1.000000 0.337255
0.658824 1.000000 0.337255
0.337255 1.000000 0.337255
0.066667 1.000000 0.337255
1.000000 1.000000 0.337255
0.000000 0.000000 0.066667
0.658824 0.000000 0.066667
0.337255 0.000000 0.066667
0.066667 0.000000 0.066667
1.000000 0.000000 0.066667
0.000000 0.658824 0.066667
0.658824 0.658824 0.066667
0.337255 0.658824 0.066667
0.066667 0.658824 0.066667
1.000000 0.658824 0.066667
0.000000 0.337255 0.066667
0.658824 0.337255 0.066667
0.337255 0.337255 0.066667
0.066667 0.337255 0.066667
1.000000 0.337255 0.066667
0.000000 0.066667 0.066667
0.658824 0.066667 0.066667
0.337255 0.066667 0.066667
0.066667 0.066667 0.066667
1.000000 0.066667 0.066667
0.000000 1.000000 0.066667
0.658824 1.000000 0.066667
0.337255 1.000000 0.066667
0.066667 1.000000 0.066667
1.000000 1.000000 0.066667
0.000000 0.000000 1.000000
0.658824 0.000000 1.000000
0.337255 0.000000 1.000000
0.066667 0.000000 1.000000
1.000000 0.000000 1.000000
0.000000 0.658824 1.000000
0.658824 0.658824 1.000000
0.337255 0.658824 1.000000
0.066667 0.658824 1.000000
1.000000 0.658824 1.000000
0.000000 0.337255 1.000000
0.658824 0.337255 1.000000
0.337255 0.337255 1.000000
0.066667 0.337255 1.000000
1.000000 0.337255 1.000000
0.000000 0.066667 1.000000
0.658824 0.066667 1.000000
0.337255 0.066667 1.000000
0.066667 0.066667 1.000000
1.000000 0.066667 1.000000
0.000000 1.000000 1.000000
0.658824 1.000000 1.000000
0.337255 1.000000 1.000000
0.066667 1.000000 1.000000
1.000000 1.000000 1.000000
