Assets/Shaders/template32.CUBE
#Created by www.Photopea.com
TITLE "template.psd"
#LUT size
LUT_3D_SIZE 32
#data domain
DOMAIN_MIN 0.0 0.0 0.0
DOMAIN_MAX 1.0 1.0 1.0
#LUT data points
0.000000 0.000000 0.000000
0.000000 0.000000 0.000000
0.000000 0.000000 0.000000
0.000000 0.000000 0.000000
0.000000 0.000000 0.000000
0.000000 0.000000 0.000000
0.000000 0.000000 0.000000
0.658824 0.000000 0.000000
0.658824 0.000000 0.000000
0.658824 0.000000 0.000000
0.658824 0.000000 0.000000
0.658824 0.000000 0.000000
0.658824 0.000000 0.000000
0.337255 0.000000 0.000000
0.337255 0.000000 0.000000
0.337255 0.000000 0.000000
0.337255 0.000000 0.000000
0.337255 0.000000 0.000000
0.337255 0.000000 0.000000
0.066667 0.000000 0.000000
0.066667 0.000000 0.000000
0.066667 0.000000 0.000000
0.066667 0.000000 0.000000
0.066667 0.000000 0.000000
0.066667 0.000000 0.000000
1.000000 0.000000 0.000000
1.000000 0.000000 0.000000
1.000000 0.000000 0.000000
1.000000 0.000000 0.000000
1.000000 0.000000 0.000000
1.000000 0.000000 0.000000
1.000000 0.000000 0.000000
0.000000 0.000000 0.000000
0.000000 0.000000 0.000000
0.000000 0.000000 0.000000
0.000000 0.000000 0.000000
0.000000 0.000000 0.000000
0.000000 0.000000 0.000000
0.000000 0.000000 0.000000
0.658824 0.000000 0.000000
0.658824 0.000000 0.000000
0.658824 0.000000 0.000000
0.658824 0.000000 0.000000
0.658824 0.000000 0.000000
0.658824 0.000000 0.000000
0.337255 0.000000 0.000000
0.337255 0.000000 0.000000
0.337255 0.000000 0.000000
0.337255 0.000000 0.000000
0.337255 0.000000 0.000000
0.337255 0.000000 0.000000
0.066667 0.000000 0.000000
0.066667 0.000000 0.000000
0.066667 0.000000 0.000000
0.066667 0.000000 0.000000
0.066667 0.000000 0.000000
0.066667 0.000000 0.000000
1.000000 0.000000 0.000000
1.000000 0.000000 0.000000
1.000000 0.000000 0.000000
1.000000 0.000000 0.000000
1.000000 0.000000 0.000000
1.000000 0.000000 0.000000
1.000000 0.000000 0.000000
0.000000 0.000000 0.000000
0.000000 0.000000 0.000000
0.000000 0.000000 0.000000
0.000000 0.000000 0.000000
0.000000 0.000000 0.000000
0.000000 0.000000 0.000000
0.000000 0.000000 0.000000
0.658824 0.000000 0.000000
0.658824 0.000000 0.000000
0.658824 0.000000 0.000000
0.658824 0.000000 0.000000
0.658824 0.000000 0.000000
0.658824 0.000000 0.000000
0.337255 0.000000 0.000000
0.337255 0.000000 0.000000
0.337255 0.000000 0.000000
0.337255 0.000000 0.000000
0.337255 0.000000 0.000000
0.337255 0.000000 0.000000
0.066667 0.000000 0.000000
0.066667 0.000000 0.000000
0.066667 0.000000 0.000000
0.066667 0.000000 0.000000
0.066667 0.000000 0.000000
0.066667 0.000000 0.000000
1.000000 0.000000 0.000000
1.000000 0.000000 0.000000
1.000000 0.000000 0.000000
1.000000 0.000000 0.000000
1.000000 0.000000 0.000000
1.000000 0.000000 0.000000
1.000000 0.000000 0.000000
0.000000 0.000000 0.000000
0.000000 0.000000 0.000000
0.000000 0.000000 0.000000
0.000000 0.000000 0.000000
0.000000 0.000000 0.000000
0.000000 0.000000 0.000000
0.000000 0.000000 0.000000
0.658824 0.000000 0.000000
0.658824 0.000000 0.000000
0.658824 0.000000 0.000000
0.658824 0.000000 0.000000
0.658824 0.000000 0.000000
0.658824 0.000000 0.000000
0.337255 0.000000 0.000000
0.337255 0.000000 0.000000
0.337255 0.000000 0.000000
0.337255 0.000000 0.000000
0.337255 0.000000 0.000000
0.337255 0.000000 0.000000
0.066667 0.000000 0.000000
0.066667 0.000000 0.000000
0.066667 0.000000 0.000000
0.066667 0.000000 0.000000
0.066667 0.000000 0.000000
0.066667 0.000000 0.000000
1.000000 0.000000 0.000000
1.000000 0.000000 0.000000
1.000000 0.000000 0.000000
1.000000 0.000000 0.000000
1.000000 0.000000 0.000000
1.000000 0.000000 0.000000
1.000000 0.000000 0.000000
0.000000 0.000000 0.000000
0.000000 0.000000 0.000000
0.000000 0.000000 0.000000
0.000000 0.000000 0.000000
0.000000 0.000000 0.000000
0.000000 0.000000 0.000000
0.000000 0.000000 0.000000
0.658824 0.000000 0.000000
0.658824 0.000000 0.000000
0.658824 0.000000 0.000000
0.658824 0.000000 0.000000
0.658824 0.000000 0.000000
0.658824 0.000000 0.000000
0.337255 0.000000 0.000000
0.337255 0.000000 0.000000
0.337255 0.000000 0.000000
0.337255 0.000000 0.000000
0.337255 0.000000 0.000000
0.337255 0.000000 0.000000
0.066667 0.000000 0.000000
0.066667 0.000000 0.000000
0.066667 0.000000 0.000000
0.066667 0.000000 0.000000
0.066667 0.000000 0.000000
0.066667 0.000000 0.000000
1.000000 0.000000 0.000000
1.000000 0.000000 0.000000
1.000000 0.000000 0.000000
1.000000 0.000000 0.000000
1.000000 0.000000 0.000000
1.000000 0.000000 0.000000
1.000000 0.000000 0.000000
0.000000 0.000000 0.000000
0.000000 0.000000 0.000000
0.000000 0.000000 0.000000
0.000000 0.000000 0.000000
0.000000 0.000000 0.000000
0.000000 0.000000 0.000000
0.000000 0.000000 0.000000
0.658824 0.000000 0.000000
0.658824 0.000000 0.000000
0.658824 0.000000 0.000000
0.658824 0.000000 0.000000
0.658824 0.000000 0.000000
0.658824 0.000000 0.000000
0.337255 0.000000 0.000000
0.337255 0.000000 0.000000
0.337255 0.000000 0.000000
0.337255 0.000000 0.000000
0.337255 0.000000 0.000000
0.337255 0.000000 0.000000
0.066667 0.000000 0.000000
0.066667 0.000000 0.000000
0.066667 0.000000 0.000000
0.066667 0.000000 0.000000
0.066667 0.000000 0.000000
0.066667 0.000000 0.000000
1.000000 0.000000 0.000000
1.000000 0.000000 0.000000
1.000000 0.000000 0.000000
1.000000 0.000000 0.000000
1.000000 0.000000 0.000000
1.000000 0.000000 0.000000
1.000000 0.000000 0.000000
0.000000 0.000000 0.000000
0.000000 0.000000 0.000000
0.000000 0.000000 0.000000
0.000000 0.000000 0.000000
0.000000 0.000000 0.000000
0.000000 0.000000 0.000000
0.000000 0.000000 0.000000
0.658824 0.000000 0.000000
0.658824 0.000000 0.000000
0.658824 0.000000 0.000000
0.658824 0.000000 0.000000
0.658824 0.000000 0.000000
0.658824 0.000000 0.000000
0.337255 0.000000 0.000000
0.337255 0.000000 0.000000
0.337255 0.000000 0.000000
0.337255 0.000000 0.000000
0.337255 0.000000 0.000000
0.337255 0.000000 0.000000
0.066667 0.000000 0.000000
0.066667 0.000000 0.000000
0.066667 0.000000 0.000000
0.066667 0.000000 0.000000
0.066667 0.000000 0.000000
0.066667 0.000000 0.000000
1.000000 0.000000 0.000000
1.000000 0.000000 0.000000
1.000000 0.000000 0.000000
1.000000 0.000000 0.000000
1.000000 0.000000 0.000000
1.000000 0.000000 0.000000
1.000000 0.000000 0.000000
0.000000 0.658824 0.000000
0.000000 0.658824 0.000000
0.000000 0.658824 0.000000
0.000000 0.658824 0.000000
0.000000 0.658824 0.000000
0.000000 0.658824 0.000000
0.000000 0.658824 0.000000
0.658824 0.658824 0.000000
0.658824 0.658824 0.000000
0.658824 0.658824 0.000000
0.658824 0.658824 0.000000
0.658824 0.658824 0.000000
0.658824 0.658824 0.000000
0.337255 0.658824 0.000000
0.337255 0.658824 0.000000
0.337255 0.658824 0.000000
0.337255 0.658824 0.000000
0.337255 0.658824 0.000000
0.337255 0.658824 0.000000
0.066667 0.658824 0.000000
0.066667 0.658824 0.000000
0.066667 0.658824 0.000000
0.066667 0.658824 0.000000
0.066667 0.658824 0.000000
0.066667 0.658824 0.000000
1.000000 0.658824 0.000000
1.000000 0.658824 0.000000
1.000000 0.658824 0.000000
1.000000 0.658824 0.000000
1.000000 0.658824 0.000000
1.000000 0.658824 0.000000
1.000000 0.658824 0.000000
0.000000 0.658824 0.000000
0.000000 0.658824 0.000000
0.000000 0.658824 0.000000
0.000000 0.658824 0.000000
0.000000 0.658824 0.000000
0.000000 0.658824 0.000000
0.000000 0.658824 0.000000
0.658824 0.658824 0.000000
0.658824 0.658824 0.000000
0.658824 0.658824 0.000000
0.658824 0.658824 0.000000
0.658824 0.658824 0.000000
0.658824 0.658824 0.000000
0.337255 0.658824 0.000000
0.337255 0.658824 0.000000
0.337255 0.658824 0.000000
0.337255 0.658824 0.000000
0.337255 0.658824 0.000000
0.337255 0.658824 0.000000
0.066667 0.658824 0.000000
0.066667 0.658824 0.000000
0.066667 0.658824 0.000000
0.066667 0.658824 0.000000
0.066667 0.658824 0.000000
0.066667 0.658824 0.000000
1.000000 0.658824 0.000000
1.000000 0.658824 0.000000
1.000000 0.658824 0.000000
1.000000 0.658824 0.000000
1.000000 0.658824 0.000000
1.000000 0.658824 0.000000
1.000000 0.658824 0.000000
0.000000 0.658824 0.000000
0.000000 0.658824 0.000000
0.000000 0.658824 0.000000
0.000000 0.658824 0.000000
0.000000 0.658824 0.000000
0.000000 0.658824 0.000000
0.000000 0.658824 0.000000
0.658824 0.658824 0.000000
0.658824 0.658824 0.000000
0.658824 0.658824 0.000000
0.658824 0.658824 0.000000
0.658824 0.658824 0.000000
0.658824 0.658824 0.000000
0.337255 0.658824 0.000000
0.337255 0.658824 0.000000
0.337255 0.658824 0.000000
0.337255 0.658824 0.000000
0.337255 0.658824 0.000000
0.337255 0.658824 0.000000
0.066667 0.658824 0.000000
0.066667 0.658824 0.000000
0.066667 0.658824 0.000000
0.066667 0.658824 0.000000
0.066667 0.658824 0.000000
0.066667 0.658824 0.000000
1.000000 0.658824 0.000000
1.000000 0.658824 0.000000
1.000000 0.658824 0.000000
1.000000 0.658824 0.000000
1.000000 0.658824 0.000000
1.000000 0.658824 0.000000
1.000000 0.658824 0.000000
0.000000 0.658824 0.000000
0.000000 0.658824 0.000000
0.000000 0.658824 0.000000
0.000000 0.658824 0.000000
0.000000 0.658824 0.000000
0.000000 0.658824 0.000000
0.000000 0.658824 0.000000
0.658824 0.658824 0.000000
0.658824 0.658824 0.000000
0.658824 0.658824 0.000000
0.658824 0.658824 0.000000
0.658824 0.658824 0.000000
0.658824 0.658824 0.000000
0.337255 0.658824 0.000000
0.337255 0.658824 0.000000
0.337255 0.658824 0.000000
0.337255 0.658824 0.000000
0.337255 0.658824 0.000000
0.337255 0.658824 0.000000
0.066667 0.658824 0.000000
0.066667 0.658824 0.000000
0.066667 0.658824 0.000000
0.066667 0.658824 0.000000
0.066667 0.658824 0.000000
0.066667 0.658824 0.000000
1.000000 0.658824 0.000000
1.000000 0.658824 0.000000
1.000000 0.658824 0.000000
1.000000 0.658824 0.000000
1.000000 0.658824 0.000000
1.000000 0.658824 0.000000
1.000000 0.658824 0.000000
0.000000 0.658824 0.000000
0.000000 0.658824 0.000000
0.000000 0.658824 0.000000
0.000000 0.658824 0.000000
0.000000 0.658824 0.000000
0.000000 0.658824 0.000000
0.000000 0.658824 0.000000
0.658824 0.658824 0.000000
0.658824 0.658824 0.000000
0.658824 0.658824 0.000000
0.658824 0.658824 0.000000
0.658824 0.658824 0.000000
0.658824 0.658824 0.000000
0.337255 0.658824 0.000000
0.337255 0.658824 0.000000
0.337255 0.658824 0.000000
0.337255 0.658824 0.000000
0.337255 0.658824 0.000000
0.337255 0.658824 0.000000
0.066667 0.658824 0.000000
0.066667 0.658824 0.000000
0.066667 0.658824 0.000000
0.066667 0.658824 0.000000
0.066667 0.658824 0.000000
0.066667 0.658824 0.000000
1.000000 0.658824 0.000000
1.000000 0.658824 0.000000
1.000000 0.658824 0.000000
1.000000 0.658824 0.000000
1.000000 0.658824 0.000000
1.000000 0.658824 0.000000
1.000000 0.658824 0.000000
0.000000 0.658824 0.000000
0.000000 0.658824 0.000000
0.000000 0.658824 0.000000
0.000000 0.658824 0.000000
0.000000 0.658824 0.000000
0.000000 0.658824 0.000000
0.000000 0.658824 0.000000
0.658824 0.658824 0.000000
0.658824 0.658824 0.000000
0.658824 0.658824 0.000000
0.658824 0.658824 0.000000
0.658824 0.658824 0.000000
0.658824 0.658824 0.000000
0.337255 0.658824 0.000000
0.337255 0.658824 0.000000
0.337255 0.658824 0.000000
0.337255 0.658824 0.000000
0.337255 0.658824 0.000000
0.337255 0.658824 0.000000
0.066667 0.658824 0.000000
0.066667 0.658824 0.000000
0.066667 0.658824 0.000000
0.066667 0.658824 0.000000
0.066667 0.658824 0.000000
0.066667 0.658824 0.000000
1.000000 0.658824 0.000000
1.000000 0.658824 0.000000
1.000000 0.658824 0.000000
1.000000 0.658824 0.000000
1.000000 0.658824 0.000000
1.000000 0.658824 0.000000
1.000000 0.658824 0.000000
0.000000 0.337255 0.000000
0.000000 0.337255 0.000000
0.000000 0.337255 0.000000
0.000000 0.337255 0.000000
0.000000 0.337255 0.000000
0.000000 0.337255 0.000000
0.000000 0.337255 0.000000
0.658824 0.337255 0.000000
0.658824 0.337255 0.000000
0.658824 0.337255 0.000000
0.658824 0.337255 0.000000
0.658824 0.337255 0.000000
0.658824 0.337255 0.000000
0.337255 0.337255 0.000000
0.337255 0.337255 0.000000
0.337255 0.337255 0.000000
0.337255 0.337255 0.000000
0.337255 0.337255 0.000000
0.337255 0.337255 0.000000
0.066667 0.337255 0.000000
0.066667 0.337255 0.000000
0.066667 0.337255 0.000000
0.066667 0.337255 0.000000
0.066667 0.337255 0.000000
0.066667 0.337255 0.000000
1.000000 0.337255 0.000000
1.000000 0.337255 0.000000
1.000000 0.337255 0.000000
1.000000 0.337255 0.000000
1.000000 0.337255 0.000000
1.000000 0.337255 0.000000
1.000000 0.337255 0.000000
0.000000 0.337255 0.000000
0.000000 0.337255 0.000000
0.000000 0.337255 0.000000
0.000000 0.337255 0.000000
0.000000 0.337255 0.000000
0.000000 0.337255 0.000000
0.000000 0.337255 0.000000
0.658824 0.337255 0.000000
0.658824 0.337255 0.000000
0.658824 0.337255 0.000000
0.658824 0.337255 0.000000
0.658824 0.337255 0.000000
0.658824 0.337255 0.000000
0.337255 0.337255 0.000000
0.337255 0.337255 0.000000
0.337255 0.337255 0.000000
0.337255 0.337255 0.000000
0.337255 0.337255 0.000000
0.337255 0.337255 0.000000
0.066667 0.337255 0.000000
0.066667 0.337255 0.000000
0.066667 0.337255 0.000000
0.066667 0.337255 0.000000
0.066667 0.337255 0.000000
0.066667 0.337255 0.000000
1.000000 0.337255 0.000000
1.000000 0.337255 0.000000
1.000000 0.337255 0.000000
1.000000 0.337255 0.000000
1.000000 0.337255 0.000000
1.000000 0.337255 0.000000
1.000000 0.337255 0.000000
0.000000 0.337255 0.000000
0.000000 0.337255 0.000000
0.000000 0.337255 0.000000
0.000000 0.337255 0.000000
0.000000 0.337255 0.000000
0.000000 0.337255 0.000000
0.000000 0.337255 0.000000
0.658824 0.337255 0.000000
0.658824 0.337255 0.000000
0.658824 0.337255 0.000000
0.658824 0.337255 0.000000
0.658824 0.337255 0.000000
0.658824 0.337255 0.000000
0.337255 0.337255 0.000000
0.337255 0.337255 0.000000
0.337255 0.337255 0.000000
0.337255 0.337255 0.000000
0.337255 0.337255 0.000000
0.337255 0.337255 0.000000
0.066667 0.337255 0.000000
0.066667 0.337255 0.000000
0.066667 0.337255 0.000000
0.066667 0.337255 0.000000
0.066667 0.337255 0.000000
0.066667 0.337255 0.000000
1.000000 0.337255 0.000000
1.000000 0.337255 0.000000
1.000000 0.337255 0.000000
1.000000 0.337255 0.000000
1.000000 0.337255 0.000000
1.000000 0.337255 0.000000
1.000000 0.337255 0.000000
0.000000 0.337255 0.000000
0.000000 0.337255 0.000000
0.000000 0.337255 0.000000
0.000000 0.337255 0.000000
0.000000 0.337255 0.000000
0.000000 0.337255 0.000000
0.000000 0.337255 0.000000
0.658824 0.337255 0.000000
0.658824 0.337255 0.000000
0.658824 0.337255 0.000000
0.658824 0.337255 0.000000
0.658824 0.337255 0.000000
0.658824 0.337255 0.000000
0.337255 0.337255 0.000000
0.337255 0.337255 0.000000
0.337255 0.337255 0.000000
0.337255 0.337255 0.000000
0.337255 0.337255 0.000000
0.337255 0.337255 0.000000
0.066667 0.337255 0.000000
0.066667 0.337255 0.000000
0.066667 0.337255 0.000000
0.066667 0.337255 0.000000
0.066667 0.337255 0.000000
0.066667 0.337255 0.000000
1.000000 0.337255 0.000000
1.000000 0.337255 0.000000
1.000000 0.337255 0.000000
1.000000 0.337255 0.000000
1.000000 0.337255 0.000000
1.000000 0.337255 0.000000
1.000000 0.337255 0.000000
0.000000 0.337255 0.000000
0.000000 0.337255 0.000000
0.000000 0.337255 0.000000
0.000000 0.337255 0.000000
0.000000 0.337255 0.000000
0.000000 0.337255 0.000000
0.000000 0.337255 0.000000
0.658824 0.337255 0.000000
0.658824 0.337255 0.000000
0.658824 0.337255 0.000000
0.658824 0.337255 0.000000
0.658824 0.337255 0.000000
0.658824 0.337255 0.000000
0.337255 0.337255 0.000000
0.337255 0.337255 0.000000
0.337255 0.337255 0.000000
0.337255 0.337255 0.000000
0.337255 0.337255 0.000000
0.337255 0.337255 0.000000
0.066667 0.337255 0.000000
0.066667 0.337255 0.000000
0.066667 0.337255 0.000000
0.066667 0.337255 0.000000
0.066667 0.337255 0.000000
0.066667 0.337255 0.000000
1.000000 0.337255 0.000000
1.000000 0.337255 0.000000
1.000000 0.337255 0.000000
1.000000 0.337255 0.000000
1.000000 0.337255 0.000000
1.000000 0.337255 0.000000
1.000000 0.337255 0.000000
0.000000 0.337255 0.000000
0.000000 0.337255 0.000000
0.000000 0.337255 0.000000
0.000000 0.337255 0.000000
0.000000 0.337255 0.000000
0.000000 0.337255 0.000000
0.000000 0.337255 0.000000
0.658824 0.337255 0.000000
0.658824 0.337255 0.000000
0.658824 0.337255 0.000000
0.658824 0.337255 0.000000
0.658824 0.337255 0.000000
0.658824 0.337255 0.000000
0.337255 0.337255 0.000000
0.337255 0.337255 0.000000
0.337255 0.337255 0.000000
0.337255 0.337255 0.000000
0.337255 0.337255 0.000000
0.337255 0.337255 0.000000
0.066667 0.337255 0.000000
0.066667 0.337255 0.000000
0.066667 0.337255 0.000000
0.066667 0.337255 0.000000
0.066667 0.337255 0.000000
0.066667 0.337255 0.000000
1.000000 0.337255 0.000000
1.000000 0.337255 0.000000
1.000000 0.337255 0.000000
1.000000 0.337255 0.000000
1.000000 0.337255 0.000000
1.000000 0.337255 0.000000
1.000000 0.337255 0.000000
0.000000 0.066667 0.000000
0.000000 0.066667 0.000000
0.000000 0.066667 0.000000
0.000000 0.066667 0.000000
0.000000 0.066667 0.000000
0.000000 0.066667 0.000000
0.000000 0.066667 0.000000
0.658824 0.066667 0.000000
0.658824 0.066667 0.000000
0.658824 0.066667 0.000000
0.658824 0.066667 0.000000
0.658824 0.066667 0.000000
0.658824 0.066667 0.000000
0.337255 0.066667 0.000000
0.337255 0.066667 0.000000
0.337255 0.066667 0.000000
0.337255 0.066667 0.000000
0.337255 0.066667 0.000000
0.337255 0.066667 0.000000
0.066667 0.066667 0.000000
0.066667 0.066667 0.000000
0.066667 0.066667 0.000000
0.066667 0.066667 0.000000
0.066667 0.066667 0.000000
0.066667 0.066667 0.000000
1.000000 0.066667 0.000000
1.000000 0.066667 0.000000
1.000000 0.066667 0.000000
1.000000 0.066667 0.000000
1.000000 0.066667 0.000000
1.000000 0.066667 0.000000
1.000000 0.066667 0.000000
0.000000 0.066667 0.000000
0.000000 0.066667 0.000000
0.000000 0.066667 0.000000
0.000000 0.066667 0.000000
0.000000 0.066667 0.000000
0.000000 0.066667 0.000000
0.000000 0.066667 0.000000
0.658824 0.066667 0.000000
0.658824 0.066667 0.000000
0.658824 0.066667 0.000000
0.658824 0.066667 0.000000
0.658824 0.066667 0.000000
0.658824 0.066667 0.000000
0.337255 0.066667 0.000000
0.337255 0.066667 0.000000
0.337255 0.066667 0.000000
0.337255 0.066667 0.000000
0.337255 0.066667 0.000000
0.337255 0.066667 0.000000
0.066667 0.066667 0.000000
0.066667 0.066667 0.000000
0.066667 0.066667 0.000000
0.066667 0.066667 0.000000
0.066667 0.066667 0.000000
0.066667 0.066667 0.000000
1.000000 0.066667 0.000000
1.000000 0.066667 0.000000
1.000000 0.066667 0.000000
1.000000 0.066667 0.000000
1.000000 0.066667 0.000000
1.000000 0.066667 0.000000
1.000000 0.066667 0.000000
0.000000 0.066667 0.000000
0.000000 0.066667 0.000000
0.000000 0.066667 0.000000
0.000000 0.066667 0.000000
0.000000 0.066667 0.000000
0.000000 0.066667 0.000000
0.000000 0.066667 0.000000
0.658824 0.066667 0.000000
0.658824 0.066667 0.000000
0.658824 0.066667 0.000000
0.658824 0.066667 0.000000
0.658824 0.066667 0.000000
0.658824 0.066667 0.000000
0.337255 0.066667 0.000000
0.337255 0.066667 0.000000
0.337255 0.066667 0.000000
0.337255 0.066667 0.000000
0.337255 0.066667 0.000000
0.337255 0.066667 0.000000
0.066667 0.066667 0.000000
0.066667 0.066667 0.000000
0.066667 0.066667 0.000000
0.066667 0.066667 0.000000
0.066667 0.066667 0.000000
0.066667 0.066667 0.000000
1.000000 0.066667 0.000000
1.000000 0.066667 0.000000
1.000000 0.066667 0.000000
1.000000 0.066667 0.000000
1.000000 0.066667 0.000000
1.000000 0.066667 0.000000
1.000000 0.066667 0.000000
0.000000 0.066667 0.000000
0.000000 0.066667 0.000000
0.000000 0.066667 0.000000
0.000000 0.066667 0.000000
0.000000 0.066667 0.000000
0.000000 0.066667 0.000000
0.000000 0.066667 0.000000
0.658824 0.066667 0.000000
0.658824 0.066667 0.000000
0.658824 0.066667 0.000000
0.658824 0.066667 0.000000
0.658824 0.066667 0.000000
0.658824 0.066667 0.000000
0.337255 0.066667 0.000000
0.337255 0.066667 0.000000
0.337255 0.066667 0.000000
0.337255 0.066667 0.000000
0.337255 0.066667 0.000000
0.337255 0.066667 0.000000
0.066667 0.066667 0.000000
0.066667 0.066667 0.000000
0.066667 0.066667 0.000000
0.066667 0.066667 0.000000
0.066667 0.066667 0.000000
0.066667 0.066667 0.000000
1.000000 0.066667 0.000000
1.000000 0.066667 0.000000
1.000000 0.066667 0.000000
1.000000 0.066667 0.000000
1.000000 0.066667 0.000000
1.000000 0.066667 0.000000
1.000000 0.066667 0.000000
0.000000 0.066667 0.000000
0.000000 0.066667 0.000000
0.000000 0.066667 0.000000
0.000000 0.066667 0.000000
0.000000 0.066667 0.000000
0.000000 0.066667 0.000000
0.000000 0.066667 0.000000
0.658824 0.066667 0.000000
0.658824 0.066667 0.000000
0.658824 0.066667 0.000000
0.658824 0.066667 0.000000
0.658824 0.066667 0.000000
0.658824 0.066667 0.000000
0.337255 0.066667 0.000000
0.337255 0.066667 0.000000
0.337255 0.066667 0.000000
0.337255 0.066667 0.000000
0.337255 0.066667 0.000000
0.337255 0.066667 0.000000
0.066667 0.066667 0.000000
0.066667 0.066667 0.000000
0.066667 0.066667 0.000000
0.066667 0.066667 0.000000
0.066667 0.066667 0.000000
0.066667 0.066667 0.000000
1.000000 0.066667 0.000000
1.000000 0.066667 0.000000
1.000000 0.066667 0.000000
1.000000 0.066667 0.000000
1.000000 0.066667 0.000000
1.000000 0.066667 0.000000
1.000000 0.066667 0.000000
0.000000 0.066667 0.000000
0.000000 0.066667 0.000000
0.000000 0.066667 0.000000
0.000000 0.066667 0.000000
0.000000 0.066667 0.000000
0.000000 0.066667 0.000000
0.000000 0.066667 0.000000
0.658824 0.066667 0.000000
0.658824 0.066667 0.000000
0.658824 0.066667 0.000000
0.658824 0.066667 0.000000
0.658824 0.066667 0.000000
0.658824 0.066667 0.000000
0.337255 0.066667 0.000000
0.337255 0.066667 0.000000
0.337255 0.066667 0.000000
0.337255 0.066667 0.000000
0.337255 0.066667 0.000000
0.337255 0.066667 0.000000
0.066667 0.066667 0.000000
0.066667 0.066667 0.000000
0.066667 0.066667 0.000000
0.066667 0.066667 0.000000
0.066667 0.066667 0.000000
0.066667 0.066667 0.000000
1.000000 0.066667 0.000000
1.000000 0.066667 0.000000
1.000000 0.066667 0.000000
1.000000 0.066667 0.000000
1.000000 0.066667 0.000000
1.000000 0.066667 0.000000
1.000000 0.066667 0.000000
0.000000 1.000000 0.000000
0.000000 1.000000 0.000000
0.000000 1.000000 0.000000
0.000000 1.000000 0.000000
0.000000 1.000000 0.000000
0.000000 1.000000 0.000000
0.000000 1.000000 0.000000
0.658824 1.000000 0.000000
0.658824 1.000000 0.000000
0.658824 1.000000 0.000000
0.658824 1.000000 0.000000
0.658824 1.000000 0.000000
0.658824 1.000000 0.000000
0.337255 1.000000 0.000000
0.337255 1.000000 0.000000
0.337255 1.000000 0.000000
0.337255 1.000000 0.000000
0.337255 1.000000 0.000000
0.337255 1.000000 0.000000
0.066667 1.000000 0.000000
0.066667 1.000000 0.000000
0.066667 1.000000 0.000000
0.066667 1.000000 0.000000
0.066667 1.000000 0.000000
0.066667 1.000000 0.000000
1.000000 1.000000 0.000000
1.000000 1.000000 0.000000
1.000000 1.000000 0.000000
1.000000 1.000000 0.000000
1.000000 1.000000 0.000000
1.000000 1.000000 0.000000
1.000000 1.000000 0.000000
0.000000 1.000000 0.000000
0.000000 1.000000 0.000000
0.000000 1.000000 0.000000
0.000000 1.000000 0.000000
0.000000 1.000000 0.000000
0.000000 1.000000 0.000000
0.000000 1.000000 0.000000
0.658824 1.000000 0.000000
0.658824 1.000000 0.000000
0.658824 1.000000 0.000000
0.658824 1.000000 0.000000
0.658824 1.000000 0.000000
0.658824 1.000000 0.000000
0.337255 1.000000 0.000000
0.337255 1.000000 0.000000
0.337255 1.000000 0.000000
0.337255 1.000000 0.000000
0.337255 1.000000 0.000000
0.337255 1.000000 0.000000
0.066667 1.000000 0.000000
0.066667 1.000000 0.000000
0.066667 1.000000 0.000000
0.066667 1.000000 0.000000
0.066667 1.000000 0.000000
0.066667 1.000000 0.000000
1.000000 1.000000 0.000000
1.000000 1.000000 0.000000
1.000000 1.000000 0.000000
1.000000 1.000000 0.000000
1.000000 1.000000 0.000000
1.000000 1.000000 0.000000
1.000000 1.000000 0.000000
0.000000 1.000000 0.000000
0.000000 1.000000 0.000000
0.000000 1.000000 0.000000
0.000000 1.000000 0.000000
0.000000 1.000000 0.000000
0.000000 1.000000 0.000000
0.000000 1.000000 0.000000
0.658824 1.000000 0.000000
0.658824 1.000000 0.000000
0.658824 1.000000 0.000000
0.658824 1.000000 0.000000
0.658824 1.000000 0.000000
0.658824 1.000000 0.000000
0.337255 1.000000 0.000000
0.337255 1.000000 0.000000
0.337255 1.000000 0.000000
0.337255 1.000000 0.000000
0.337255 1.000000 0.000000
0.337255 1.000000 0.000000
